!!!OTL: 516b. Herr Papageno.
!!!ARE: Europa, Mitteleuropa, Deutschland, Darmstadt
!!!SCT: K2516
!!!TXL: @@DE
!!!YEM: Copyright 1995, estate of Helmut Schaffrath.
**kern	**text
*clefG2	*
*M2/4	*
*k[b-e-a-]	*
*E-:	*
{16e-	Gu-
16e-	-ten
=1	=1
8b-	Tag.
8b-	Herr
8cc	Pap-
8cc	-pel-
=2	=2
4b-	-je-
8g}	-ner!
{8e-	Wie
=3	=3
8b-	hat
8b-	er
8cc	ſich
8cc	ver-
=4	=4
4b-	-ſeh-
8g}	-net;
{8e-	das
=5	=5
8b-	al-
8b-	-lerſchön-
8cc	.
8cc	-ſte
=6	=6
4b-	Mäd-
8g}	-chen,
{8e-	das
=7	=7
8b-	hat
8b-	er
8cc	laſ-
8cc	-ſen
=8	=8
8b-	ſteh'n!
8r	.
8r}	.
==	==
!!!AGN: Kinder - Lied, Such - Spiel
!!!ONB: ESAC (Essen Associative Code) Database: KINDER
!!!AMT: simple duple
!!!AIN: vox
!!!EED: Helmut Schaffrath
!!!EEV: 1.0
!!Aus Darmstadt: Foelsing Nr. 112 (vor 1845.)
!!!GTL: Zweites Buch. Kinderspiel: 8. Such- und Rathespiele.
!!@@COMMENT:"Beſſerer Reim bei GutsMuths 329: Ei, ei, Herr Papageno, wie hat er das verſehn? Er ließ den ſchönſten Vogel aus ſeinem Garne gehn. "
!!@@END:
!!!URL-scan: https://archive.org/details/DeutschesKinderliedUndKinderspiel/page/630/mode/1up
!!!ENC: Anna Maria Matuszewska
!!!EEV: 2024/05/09
*-	*-
